svgs/thin/kaaba.svg

<svg xmlns="http://www.w3.org/2000/svg" viewBox="0 0 576 512"><!--! Font Awesome Pro 6.0.0-alpha3 by @fontawesome - https://fontawesome.com License - https://fontawesome.com/license (Commercial License) --><path d="M554.1 83.5L318.4 4.875C308.5 1.625 298.3 0 288 0S267.5 1.625 257.6 4.875L21.88 83.5C8.875 87.87 0 100.1 0 113.9v310.8c0 15 10.38 28 25 31.25l242.1 53.88C273.1 511.2 281 511.1 288 511.1s13.1-.75 20.88-2.25l242.1-53.88C565.6 452.6 576 439.6 576 424.6V113.9C576 100.1 567.3 87.87 554.1 83.5zM560 424.6c0 7.57-5.129 14-12.48 15.63l-242.1 53.86C299.7 495.4 293.9 495.1 288 495.1s-11.74-.6328-17.4-1.867l-242.1-53.88C21.13 438.6 16 432.2 16 424.6V182.4l251.3-75.39c13.5-4.062 27.88-4.062 41.38 0L560 182.4V424.6zM560 165.7l-246.7-74.01c-16.56-5-34.06-5-50.63 0L16 165.7V113.9c0-6.887 4.412-13 10.94-15.2l235.7-78.61C270.8 17.37 279.4 15.1 288 15.1s17.16 1.371 25.31 4.055l235.8 78.63C555.6 100.9 560 106.1 560 113.9V165.7zM115.8 216.1L45.91 236.1C41.63 237.2 39.13 241.6 40.28 245.9C41.25 249.4 44.47 251.6 48 251.6c.6875 0 1.406 .0468 2.094-.1407l69.88-19.09c4.281-1.156 6.781-5.562 5.625-9.812S120.1 215.8 115.8 216.1zM259.8 177.7l-96 26.25C159.5 205.1 157 209.5 158.2 213.8c.9687 3.531 4.188 5.875 7.719 5.875c.6875 0 1.406-.0938 2.125-.2813l96-26.25c4.25-1.156 6.75-5.562 5.594-9.844C268.4 179.1 264.2 176.6 259.8 177.7zM456 232.4l69.88 19.09C526.6 251.7 527.3 251.6 528 251.6c3.531 0 6.75-2.203 7.719-5.766c1.156-4.25-1.344-8.656-5.625-9.812l-69.88-19.09c-4.156-1.125-8.656 1.375-9.812 5.625S451.8 231.2 456 232.4zM312 193.2l96 26.25c.7187 .1875 1.438 .2813 2.125 .2813c3.531 0 6.75-2.344 7.719-5.875c1.156-4.281-1.344-8.688-5.594-9.844l-96-26.25c-4.406-1.094-8.688 1.375-9.844 5.594C305.3 187.6 307.8 191.1 312 193.2z"/></svg>

<svg xmlns="http://www.w3.org/2000/svg" viewBox="0 0 576 512"><!-- Font Awesome Pro 6.0.0-alpha2 by @fontawesome - https://fontawesome.com License - https://fontawesome.com/license (Commercial License) --><path d="M554.125 83.5L318.375 4.875C308.5 1.625 298.25 0 288 0S267.5 1.625 257.625 4.875L21.875 83.5C8.875 87.875 0 100.125 0 113.875V424.625C0 439.625 10.375 452.625 25 455.875L267.125 509.75C274 511.25 281 512 288 512S302 511.25 308.875 509.75L551 455.875C565.625 452.625 576 439.625 576 424.625V113.875C576 100.125 567.25 87.875 554.125 83.5ZM560 424.625C560 432.195 554.871 438.625 547.523 440.258L305.465 494.117C299.74 495.367 293.863 496 288 496S276.26 495.367 270.6 494.133L28.471 440.258C21.129 438.625 16 432.195 16 424.625V182.418L267.312 107.031C280.812 102.969 295.188 102.969 308.688 107.031L560 182.43V424.625ZM560 165.726L313.312 91.719C296.75 86.719 279.25 86.719 262.688 91.719L16 165.719V113.875C16 106.988 20.412 100.875 26.938 98.68L262.627 20.074C270.84 17.371 279.375 16 288 16S305.162 17.371 313.312 20.055L549.066 98.68C555.605 100.859 560 106.965 560 113.875V165.726ZM115.781 216.969L45.906 236.062C41.625 237.219 39.125 241.625 40.281 245.875C41.25 249.437 44.469 251.781 48 251.781C48.688 251.781 49.406 251.687 50.094 251.5L119.969 232.406C124.25 231.25 126.75 226.844 125.594 222.594S120.062 215.812 115.781 216.969ZM259.75 177.719L163.75 203.969C159.5 205.125 157 209.531 158.156 213.812C159.125 217.344 162.344 219.687 165.875 219.687C166.562 219.687 167.281 219.594 168 219.406L264 193.156C268.25 192 270.75 187.594 269.594 183.312C268.438 179.094 264.188 176.594 259.75 177.719ZM456.031 232.406L525.906 251.5C526.594 251.687 527.312 251.781 528 251.781C531.531 251.781 534.75 249.437 535.719 245.875C536.875 241.625 534.375 237.219 530.094 236.062L460.219 216.969C456.062 215.844 451.562 218.344 450.406 222.594S451.75 231.25 456.031 232.406ZM312 193.156L408 219.406C408.719 219.594 409.438 219.687 410.125 219.687C413.656 219.687 416.875 217.344 417.844 213.812C419 209.531 416.5 205.125 412.25 203.969L316.25 177.719C311.844 176.625 307.562 179.094 306.406 183.312C305.25 187.594 307.75 192 312 193.156Z"/></svg>
